X:1
T:Ach Schatz, liebliche Krone
T:Gemignano Capilupi
T:Source : Canzonette mit 3 Stimmen/ H.Vecchi und G.Capilupi---Nürnberg---P.Kauffmann---1606. Editor : André Vierendeels (16/02/17).
T:Notes : Original clefs : C1, C2, C4 Editorial accidentals above the staff Text Middle German by Valentin Hauszmann German contrafactum of "Nisa dolce" (1597)
T:Ach Schatz, liebliche Krone
T:©
T:©
C:Gemignano Capilupi
Z:©
%%score [ 1 2 3 ]
L:1/8
Q:1/4=120
M:4/4
K:F
V:1 treble nm="Soprano 1" snm="S 1"
V:2 treble nm="Soprano 2" snm="S 2"
V:3 treble-8 nm="Tenor" snm="T"
V:1
"^1)" B8 | A4 z2 d2- | dd e2 f4 | f4 z4 | g2 gf _e2 e2 | d2 cB A4 | G8 :: z2 d2 e3 f | d2 e2 f4 | %9
w: Ach|Schatz, lieb-|* li- che Kro-|ne,|mein höch- ste freud und|won- * * *|ne,|bey dir hat|sich mein Her-|
w: Ach,|ach heim-|* lichs lei- *|den,|dasz ich gar nicht kan|mei- * * *|den,|du aus- ser-|wehl- te See-|
 f2 d2 d2 c2 | B4 G2 d2 | g2 f2 _e2 d2 | c2 B2 A2 G2 | ^F2 G4 F2 | G8 :| %15
w: tze, so sehr ver-|wun- det, so|sehr ver- wun- det|dasz es lei- det|schmer- * *|ze.|
w: le, du glaubst es|nicht, wie ich,|du glaubst es nicht,|wie ich deint hal-|ben mich _|quele.|
V:2
"^2)""^1)" G8 | ^F4 z2 =B2- | B=B c2 d4 | d4 g2 gf | _e2 e2 c2 cB | A2 G4 ^F2 | G8 :: z2 =B2 c3 c | %8
w: Ach|Schatz, lieb-|* li- che Kro-|ne, mein höch- ste|freud, mein höch- ste freud|und Won- *|ne,|bey dir hat|
w: Ach|Trost, ach|_ du mein Le-|ben, wenn wilt du|mir, wenn wilt du mir|dann ge- *|ben,|was ich von|
 B2 G2 A4 | F4 z2 A2 | d2 c2 B4 | G2 d2 g2 f2 | _e2 d2 c2 B2 | A2 G2 A4 | G8 :| %15
w: sich mein Her-|tze so|sehr ver- wun-|det, so sehr ver-|wun- det dasz er|lei- det schmer-|ze.|
w: dir be- ge-|re? Ich|bit, mein b'trüb-|stes Hertz nicht so|be- schwe- re, nicht|so be- schwe-|re.|
V:3
"^3)""^1)""^4)" G8 | D4 z2 G2- | GG c2 B4 | B4 _e2 ed | c6 c2 | d8 | G8 :: z2 G2 c3 A | B2 c2 F4 | %9
w: Ach|Schatz, lieb|_ li- che Kro-|ne, mein höch- ste|freud, und|Won-|ne,|bey dir hat|sich mein Her-|
w: Ach|zeit wirst|_ du nicht kom-|men, da- hin mein|ziel ich|g'nom-|men?|soll ich die|Lieb so pla-|
 F2 B2 B2 A2 | G6 F2 | _E2 D2 C4- | C4 C4 | D8 | G8 :| %15
w: tze so sehr er-|wun- det,|dasz es lei-|* det|schmer-|ze.|
w: gen, und ich hab|nicht hülff,|werd ich müssn|_ ver-|za-|gen.|

